epam-assets/icon-sources/18/editor-image.svg

<svg width="18" height="18" viewBox="0 0 18 18" fill="none" xmlns="http://www.w3.org/2000/svg">
<g id="18/editor-image">
<path id="icon" fill-rule="evenodd" clip-rule="evenodd" d="M14.25 14.25H3.75V3.75H14.25V14.25ZM14.25 2.25H3.75C2.92157 2.25 2.25 2.92157 2.25 3.75V14.25C2.25 15.0784 2.92157 15.75 3.75 15.75H14.25C15.0784 15.75 15.75 15.0784 15.75 14.25V3.75C15.75 2.92157 15.0784 2.25 14.25 2.25ZM10.47 9.2175L8.4075 11.8725L6.9375 10.1025L4.875 12.75H13.125L10.47 9.2175Z" fill="#6C6F80"/>
</g>
</svg>

<svg xmlns="http://www.w3.org/2000/svg" width="18" height="18" fill="none" viewBox="0 0 18 18">
  <path fill="#6C6F80" fill-rule="evenodd" d="M14.25 14.25H3.75V3.75h10.5v10.5Zm0-12H3.75a1.5 1.5 0 0 0-1.5 1.5v10.5a1.5 1.5 0 0 0 1.5 1.5h10.5a1.5 1.5 0 0 0 1.5-1.5V3.75a1.5 1.5 0 0 0-1.5-1.5Zm-3.78 6.967-2.063 2.655-1.47-1.77-2.062 2.648h8.25L10.47 9.217Z" clip-rule="evenodd"/>
</svg>
